PC_client/assets/icon/logo.svg

<svg height="128" viewBox="0 0 1035 1024" width="129.375" xmlns="http://www.w3.org/2000/svg"><path d="m180 304h-32.96a3.84 3.84 0 0 0 -3.84 3.84v434.88l40.64 41.28v-476.16a3.84 3.84 0 0 0 -3.84-3.84zm71.36 0h-32.96a3.84 3.84 0 0 0 -3.84 3.84v506.24l40.64 40.64v-546.88a3.84 3.84 0 0 0 -3.84-3.84zm590.24-51.52v596.48a3.84 3.84 0 0 0 3.84 3.84h32.96a3.84 3.84 0 0 0 3.84-3.84v-556zm-71.36 49.76v546.72a3.84 3.84 0 0 0 3.84 3.84h32.96a3.84 3.84 0 0 0 3.84-3.84v-627.2l-40.64-40.64zm-68.64-190.24a3.84 3.84 0 0 0 -2.56 3.52v563.04l-372.48-372.32a3.84 3.84 0 0 0 -3.04-1.76h-33.76a3.84 3.84 0 0 0 -3.84 3.84v577.6l31.04 31.04v-32a3.84 3.84 0 0 1 1.12-2.72 3.84 3.84 0 0 0 -1.12 2.72v32l7.04 7.04a3.84 3.84 0 0 0 2.56-3.52v-442.24l372.96 372.96a3.84 3.84 0 0 0 3.04 1.44h33.44a3.84 3.84 0 0 0 3.84-3.84v-698.4l-31.2-31.04zm-375.04 251.52 372.48 372.48v57.28l-372.48-372.32z" fill="#b40a1f"/></svg>

<?xml version="1.0" standalone="no"?><!DOCTYPE svg PUBLIC "-//W3C//DTD SVG 1.1//EN" "http://www.w3.org/Graphics/SVG/1.1/DTD/svg11.dtd"><svg t="1542340601806" class="icon" style="" viewBox="0 0 1035 1024" version="1.1" xmlns="http://www.w3.org/2000/svg" p-id="3723" xmlns:xlink="http://www.w3.org/1999/xlink" width="129.375" height="128"><defs><style type="text/css"></style></defs><path d="M180 304H147.04a3.84 3.84 0 0 0-3.84 3.84v434.88L183.84 784V307.84a3.84 3.84 0 0 0-3.84-3.84zM251.36 304h-32.96a3.84 3.84 0 0 0-3.84 3.84v506.24l40.64 40.64V307.84a3.84 3.84 0 0 0-3.84-3.84zM841.6 252.48v596.48a3.84 3.84 0 0 0 3.84 3.84h32.96a3.84 3.84 0 0 0 3.84-3.84V292.96zM770.24 302.24v546.72a3.84 3.84 0 0 0 3.84 3.84h32.96a3.84 3.84 0 0 0 3.84-3.84v-627.2l-40.64-40.64zM701.6 112a3.84 3.84 0 0 0-2.56 3.52v563.04L326.56 306.24a3.84 3.84 0 0 0-3.04-1.76h-33.76a3.84 3.84 0 0 0-3.84 3.84v577.6l31.04 31.04v-32a3.84 3.84 0 0 1 1.12-2.72 3.84 3.84 0 0 0-1.12 2.72v32l7.04 7.04a3.84 3.84 0 0 0 2.56-3.52V478.24L699.52 851.2a3.84 3.84 0 0 0 3.04 1.44H736a3.84 3.84 0 0 0 3.84-3.84V150.4l-31.2-31.04zM326.56 363.52L699.04 736v57.28L326.56 420.96z" fill="#B40A1F" p-id="3724"></path></svg>
